X:1
T:Title
%%score { 1 | 2 }
L:1/8
M:4/4
K:Ab
V:1 treble nm="Grand Piano"
V:2 bass 
V:1
 z4 z2[Q:1/4=90] [CE][CE] | [CA][Fd][Ec]B BA[EA][=EG] | FBAF [CE]3 E | [Ed][Ed]BB ccAA | B6 cd | %5
 eeAB ccEE | FBAF E2 cd | e>e e[Fd] cAGB |[M:3/4] [CEA]6 | [Ec][Ec] [Ed]4 | z6 | z6 | %12
[M:2/4] z [DB] [CA]2- |[M:1/4] [CA]2 |[M:4/4] cdee eeec | AB[Ec][Ec] [Ec][Ec][Ec][EA] | %16
 [EG]FEd cA [Ae]>[Ae] |[M:3/4] [Ge][Ge] [CEA]4- | [CEA]2 z2 z2 |] %19
V:2
 z4 z2 [A,,A,][A,,A,] | [A,,E,][A,,A,][A,,A,][E,G,D] [=E,G,D][F,A,C][C,A,][C,B,] | %2
 [D,A,D][D,F,D][D,F,D][D,A,D] [A,,A,]3 [C,A,] | %3
 [B,,G,][B,,G,][E,G,E][E,G,E] [A,E][G,B,=E][F,CF][F,B,=D] | [E,G,E]6[K:treble] [A,E][A,B,E] | %5
 [A,CA][A,CA][A,CE][A,DE] [A,EA][A,EA][K:bass][A,C][C,A,] | %6
 [D,A,D][D,F,D][D,F,D][D,A,D][K:treble] [A,C]2 [A,EA][A,B,A] | %7
 [A,CA]>[A,CA] [A,CA][K:bass][D,A,] [E,A,E][E,CE][E,B,E][E,DE] |[M:3/4] A,,6 | %9
 [A,,A,][A,,A,] [E,G,]3[K:treble] E | AB c3 c | dc B3 A |[M:2/4] c[K:bass]E, A,,2- |[M:1/4] A,,2 | %14
[M:4/4] [A,E][A,B,E][K:treble][A,CA][A,CA] [A,CA][A,CA][A,CA][A,EA] | %15
 [A,CE][E,G,E][A,,A,][A,,A,] [A,,A,][A,,A,][A,,A,][C,A,] | %16
 [D,A,][D,A,D][E,A,C][E,G,E] [A,E][A,CE] [E,C]>[E,_C] |[M:3/4] [E,B,][E,D] A,,4- | A,,2 z2 z2 |] %19

